X:4
T:Bergeret sans roch, Reprise 1
C:Tielman Susato
S:Tileman Susato: Danserye (1551)
R:Basse dance
M:3/2
L:1/2
T:Bassus
K:C bass
%
ccc|c2F|c2_B|F2F|c2c|AFA-|AG2|C2z:|
%
ccc|G2d|ed2|G2z|d2d|dcd|_BA2|d2z|
%
ccc|G2d|ed2|G2z|c2c|c_Bc|AG2|c2z|
%
ccc|c2F|c2_B|F2F|c2c|c_Bc|AG2|c2z|
%
ccc|c2F|c2_B|F2F|c2c|c_Bc|AG2|c2z|
%
ccc|c2F|c2_B|F2F|c2c|c_Bc|AG2|c3|]
